X:1
T:8 Lieder und Gesänge, Op.57
T:Unbewegte laue Luft
T:Johannes Brahms
T:8 Lieder und Gesänge, Op.57 
T:8. Unbewegte laue Luft
T:Georg Friedrich Daumer 
T:Creative Commons copyright waiver (CC0 1.0 Universal)
T:Creative Commons copyright waiver (CC0 1.0 Universal)
T:Creative Commons copyright waiver (CC0 1.0 Universal)
T:Creative Commons copyright waiver (CC0 1.0 Universal)
T:Creative Commons copyright waiver (CC0 1.0 Universal)
C:Johannes Brahms
Z:Georg Friedrich Daumer
Z:Creative Commons copyright waiver (CC0 1.0 Universal)
L:1/8
Q:1/4=105
M:9/8
K:E
V:1 treble nm="Singstimme\nVoice"
V:1
"^Langsam" z9 | z9 | G2 G B3- B2 B | (=cB) G B3 z2 z | z2 z e3 G3 | G6 F2 z | z2 z A3 G3 | %7
w: ||Un- be- weg- * te|lau- * e Luft,|tie- fe|Ru- he|der Na-|
 E6 z2 z | z2 z e3 =G3 | =G6 F2 z | z2 z (=G6- | =G3 F3) E3 | B3 z2 z z2 z | z2 z z2 z F2 F | %14
w: tur,|tie- fe|Ru- he|der|_ _ Na-|tur;|durch die|
 (d3- dc)^A (Bc) d | F3 z2 z (ed) c | (B3- Bc) G (Bc) G | B3 z2 z (e=d) =c | (B3- B=c) =G (Bc) G | %19
w: stil- * * le Gar- * ten-|nacht plät- * schert|die _ _ Fon- tai- * ne|nur, plät- * schert|die _ _ Fon- tai- * ne|
 B3 z2 z z2 z | z9 | z9 | z9 | z9 ||[M:4/4] z8 | B3 G (EG) (GB) | e3 e (e2 =c2) | =f3 f f2 f2 | %28
w: nur:||||||A- ber im * Ge- *|mü- te schwillt _|hei- sse- re Be-|
 ^f6 ^c2 | ^d4 z4 | B3 G (EG) (GB) | e3 e (e2 ^c2) | g3 d d2 d2 | (g4- gf) (cf) | e4 d2 z2 | z8 | %36
w: gier- de|mir,|a- ber in _ der _|A- der quillt _|Le- ben und ver-|langt _ _ nach *|Le- ben.||
 G3 G B3 B | (3(=c2 B2) G2 B4 | (=d4- dc) (de) | (=dc) (de) (fe) (^de) | (e2 G2) F2 z2 | z8 | %42
w: Soll- ten nicht auch|dei- * ne Brust|sehn- * * li- *|che- * re * Wün- * sche *|he- * ben?||
 G3 G B3 B | (3(=c2 B2) G2 B4 | (=d4- dc) (de) | (=dc) (de) =f4- | f2 =c2 (c2 _B2) | A2 z2 z4 | %48
w: Soll- te mei- ner|See- * le Ruf|nicht _ _ die _|dei- * ne _ tief|_ durch- be- *|ben?|
 =c3 c _B2 A2 | (=ce) (=fA) c4 | (=d=c) (_BA) c3 B | (=ge) (=d=c) (c2 _B2) | A2 z2 z4 | z8 | %54
w: Lei- se mit dem|Ä- * ther- * fuss|säu- * me * nicht da-|her * zu * schwe- *|ben!||
 ^f6 ^c2 | (e6 ^G2) | c3 c (cB) (GB) | e2 e4 c2 | g3 d d2 d2 | (g4- gf) (cf) | e4 d2 z2 | z8 | %62
w: Komm, o|komm, _|komm, o komm, * da- *|mit wir uns|himm- li- sche Ge-|nü- * * ge *|ge- ben,||
 G3 G B3 B | (3=c2 B2 G2 B4 | =c3 G B2 B2 | ^c6 e2 | e8 | B2 z2 z4 | z8 | z8 |] %70
w: komm, o komm, da-|mit _ wir uns|himm- li- sche Ge-|nü- ge|ge-|ben!|||

